public/images/frog/memo-frog.svg

<svg viewBox="0 0 252 56" fill="none" xmlns="http://www.w3.org/2000/svg">
<mask id="mask0_3600_12803" style="mask-type:alpha" maskUnits="userSpaceOnUse" x="0" y="0" width="252" height="56">
<rect width="252" height="56" fill="#D9D9D9"/>
</mask>
<g mask="url(#mask0_3600_12803)">
<rect y="8" width="104" height="26" rx="13" fill="white"/>
<path d="M16.8605 16.518V19.2942H17.9254V15.5732H19.3384V25.5884H17.9254V20.4917H16.8605V23.3964H12.6174V16.518H16.8605ZM14.018 22.2238H15.4641V17.6948H14.018V22.2238ZM20.1298 26.0815V15.4075H21.5594V26.0815H20.1298ZM32.4443 23.6119V24.8301H22.6902V23.6119H26.8048V21.424H23.7219V16.1989H31.3587V21.424H28.2841V23.6119H32.4443ZM25.1971 20.2514H29.8835V17.3964H25.1971V20.2514ZM41.4729 15.4075V19.3729H43.0474V20.5953H41.4729V26.1064H39.977V15.4075H41.4729ZM33.4839 23.5124V16.4019H38.4853V17.6077H34.9715V22.2818C36.517 22.2693 37.7974 22.1865 39.2063 21.942L39.372 23.1934C37.7187 23.4751 36.2643 23.5166 34.3789 23.5124H33.4839ZM45.8398 16.5138L45.6823 22.4599H44.1865L44.029 16.5138H45.8398ZM43.9544 24.1215C43.9462 23.5829 44.3937 23.1436 44.9365 23.1436C45.4627 23.1436 45.9185 23.5829 45.9227 24.1215C45.9185 24.6644 45.4627 25.1036 44.9365 25.1036C44.3937 25.1036 43.9462 24.6644 43.9544 24.1215ZM59.0373 15.4075V26.0815H57.5994V20.6533H56.6215V25.605H55.2334V15.6892H56.6215V19.4517H57.5994V15.4075H59.0373ZM49.7099 22.8494C51.8812 21.5815 52.8176 20.0193 53.0165 17.9268H50.2486V16.7293H54.4751C54.471 19.7044 53.5842 22.1409 50.5718 23.8854L49.7099 22.8494ZM68.8158 15.826V16.5511C68.8158 17.2058 68.8158 18.0677 68.6211 19.0953H69.9677V20.2514H65.8075V21.2624H68.7702V24.1174H62.8117V24.8425H69.052V25.9986H61.3241V23.1022H67.2909V22.4185H61.3158V21.2624H64.3282V20.2514H60.2136V19.0953H67.1128C67.2785 18.2459 67.3117 17.5829 67.3199 16.9986H61.407V15.826H68.8158ZM79.7794 15.4075V26.0815H78.3416V20.6533H77.3637V25.605H75.9756V15.6892H77.3637V19.4517H78.3416V15.4075H79.7794ZM70.4521 22.8494C72.6234 21.5815 73.5598 20.0193 73.7587 17.9268H70.9908V16.7293H75.2173C75.2131 19.7044 74.3264 22.1409 71.314 23.8854L70.4521 22.8494ZM89.558 15.826V16.5511C89.558 17.2058 89.558 18.0677 89.3632 19.0953H90.7099V20.2514H86.5497V21.2624H89.5124V24.1174H83.5538V24.8425H89.7942V25.9986H82.0663V23.1022H88.0331V22.4185H82.058V21.2624H85.0704V20.2514H80.9558V19.0953H87.855C88.0207 18.2459 88.0538 17.5829 88.0621 16.9986H82.1491V15.826H89.558Z" fill="#313239"/>
<path d="M73 43L68.4282 34H54L73 43Z" fill="white"/>
<path d="M93.0574 52.0253C93.0606 51.6503 93.0796 51.2754 93.1038 50.9049C93.9813 44.8138 97.0555 39.5225 101.629 34.8087C106.542 29.7404 112.644 25.9266 119.568 23.0024C120.012 22.8164 120.329 22.572 120.553 22.2032C121.583 20.5219 122.607 18.836 123.673 17.1682C125.762 13.8896 127.716 10.5392 130.517 7.61965C132.868 5.16844 135.479 2.96657 138.889 1.55695C141.712 0.389478 144.63 -0.0579087 147.628 1.12372C150.149 2.12037 151.686 3.88532 152.756 5.96844C153.926 8.23774 154.394 10.6335 154.537 13.0838C154.546 13.2516 154.443 13.5199 154.764 13.5402C155.101 13.5608 155.003 13.2863 155.025 13.1188C155.059 12.8897 155.056 12.6602 155.084 12.4353C155.408 9.5477 156.11 6.7427 158.061 4.28369C160.098 1.71066 162.907 0.340076 166.685 0.694312C168.961 0.907807 170.973 1.71921 172.821 2.81605C177.012 5.30519 180.023 8.6448 182.49 12.3593C184.738 15.7454 186.717 19.2527 188.813 22.7037C189.031 23.063 189.27 23.3607 189.731 23.5588C192.367 24.6932 194.88 25.9987 197.266 27.4708C203.696 31.4263 208.988 36.2151 212.481 42.2903C214.201 45.288 215.321 48.3644 215.784 51.5191C215.816 52.0357 215.838 52.5522 215.834 53.0728C215.664 73.0526 188.044 89.0175 154.14 88.7294C120.237 88.4414 92.8927 72.0096 93.0626 52.0298L93.0574 52.0253Z" fill="white"/>
<path d="M144.451 12.9952C149.049 15.6823 150.426 20.585 148.023 25.1237C146.459 28.0687 143.449 29.7768 140.423 29.4318C137.581 29.0963 135.273 26.7571 134.406 23.4361C132.724 16.9419 139.504 10.7457 144.451 12.9952Z" fill="#0E0E0E"/>
<path d="M166.011 12.2201C171.309 12.745 174.586 16.6076 174.268 21.7074C174.058 25.0182 172.019 27.8101 169.12 28.7515C166.392 29.6257 163.324 28.4667 161.164 25.8232C156.953 20.6476 160.575 12.236 166.011 12.2201Z" fill="#0E0E0E"/>
<path d="M142.652 20.4763C141.989 19.0672 142.194 17.9568 143.326 17.0939C144.074 16.5363 144.904 16.5074 145.728 16.9665C146.766 17.5453 147.253 18.4388 147.247 19.5958C147.242 20.4093 146.947 21.1171 146.155 21.4554C144.856 22.0022 143.76 21.4746 142.67 20.4772L142.652 20.4763Z" fill="white"/>
<path d="M167.221 20.2103C165.883 19.0753 165.576 17.8413 166.333 16.4287C166.839 15.5085 167.676 15.0915 168.734 15.178C170.069 15.287 170.985 15.9755 171.52 17.164C171.894 18.0004 171.922 18.8636 171.269 19.5795C170.192 20.7462 168.823 20.7167 167.24 20.2027L167.221 20.2103Z" fill="white"/>
<path d="M155.623 39.1904C153.907 40.2891 152.086 41.0261 150.095 41.2003C148.392 41.3521 146.811 40.9457 145.587 39.6549C145.276 39.3244 145.082 38.9314 145.407 38.4982C145.705 38.1007 146.157 38.0873 146.455 38.5026C147.295 39.6817 148.555 39.8693 149.837 39.8202C151.544 39.7532 153.216 39.2619 154.625 38.3642C155.681 37.6898 156.558 37.7166 157.669 37.9979C159.245 38.3954 160.857 38.3999 162.402 37.7121C163.016 37.4397 163.508 37.002 164.037 36.6089C164.362 36.3677 164.755 36.0417 165.089 36.3677C165.45 36.7161 165.125 37.1538 164.859 37.4664C163.721 38.8063 162.221 39.445 160.482 39.5522C159.182 39.6326 157.913 39.4271 156.689 38.985C156.287 38.8376 155.952 38.8376 155.623 39.1904Z" fill="#0E0E0E"/>
<path d="M188.802 9.99741C188.802 9.47639 189.202 9.04267 189.721 9.00066L225.733 6.08742C226.315 6.04032 226.814 6.50008 226.814 7.08416V71.2065C226.814 71.7588 226.366 72.2065 225.814 72.2065H189.802C189.249 72.2065 188.802 71.7588 188.802 71.2065V9.99741Z" fill="#0E0E0E"/>
<path fill-rule="evenodd" clip-rule="evenodd" d="M224.577 7.11719L188.802 10.1901V73.2771H224.577V7.11719ZM224.578 7.11719L233.522 10.1901H224.578L224.578 7.11719Z" fill="#E0E1E9"/>
<path d="M188.802 9.91016H191.317V74.9992L188.802 73.3231V9.91016Z" fill="#0E0E0E"/>
<rect width="65" height="46.0243" rx="1" transform="matrix(-4.37345e-08 1 1 4.36883e-08 189.802 10)" fill="#0E0E0E"/>
<rect x="193.804" y="27" width="12" height="38.0201" rx="1" transform="rotate(-90 193.804 27)" fill="white"/>
<path d="M233.512 35.0205C225.398 35.0205 218.818 38.7048 218.818 43.2438C218.818 45.1481 219.972 46.901 221.914 48.2913C222.256 48.5402 222.256 49.065 221.914 49.3084C219.972 50.7042 218.818 52.4571 218.818 54.356C218.818 56.2549 219.972 58.0132 221.914 59.4035C222.256 59.6524 222.256 60.1772 221.914 60.4206C219.972 61.8164 218.818 63.5693 218.818 65.4682C218.818 70.0126 225.398 73.6914 233.512 73.6914C234.102 73.6914 234.682 73.6644 235.251 73.6265L235.251 73.6157C244.534 73.3776 252 64.8298 252 54.3127C252 43.7956 244.327 34.9989 234.858 34.9989C234.666 34.9989 234.485 35.0097 234.299 35.0151C234.035 35.0043 233.776 34.9989 233.506 34.9989L233.512 35.0205Z" fill="white"/>
</g>
</svg>

<svg viewBox="0 0 252 56" fill="none" xmlns="http://www.w3.org/2000/svg"><mask id="a" style="mask-type:alpha" maskUnits="userSpaceOnUse" x="0" y="0" width="252" height="56"><path fill="#D9D9D9" d="M0 0h252v56H0z"/></mask><g mask="url(#a)"><rect y="8" width="104" height="26" rx="13" fill="#fff"/><path d="M16.86 16.518v2.776h1.065v-3.72h1.413v10.014h-1.413v-5.096H16.86v2.904h-4.243v-6.878h4.243Zm-2.842 5.706h1.446v-4.53h-1.446v4.53Zm6.112 3.857V15.408h1.43V26.08h-1.43Zm12.314-2.47v1.22H22.69v-1.22h4.115v-2.187h-3.083v-5.225h7.637v5.225h-3.075v2.188h4.16Zm-7.247-3.36h4.687v-2.855h-4.687v2.855Zm16.276-4.844v3.966h1.574v1.222h-1.574v5.511h-1.496V15.407h1.496Zm-7.99 8.105v-7.11h5.002v1.206h-3.514v4.674c1.546-.013 2.826-.096 4.235-.34l.166 1.251c-1.653.282-3.108.324-4.993.32h-.895Zm12.357-6.998-.158 5.946h-1.495l-.158-5.946h1.81Zm-1.886 7.608a.975.975 0 0 1 .983-.978c.526 0 .982.439.986.978a.999.999 0 0 1-.986.982.976.976 0 0 1-.983-.982Zm15.083-8.714V26.08H57.6v-5.428h-.977v4.952h-1.389v-9.916h1.389v3.763h.977v-4.045h1.438Zm-9.327 7.441c2.171-1.268 3.108-2.83 3.306-4.922H50.25v-1.198h4.226c-.004 2.975-.89 5.412-3.903 7.156l-.862-1.036Zm19.106-7.023v.725c0 .655 0 1.517-.195 2.544h1.347v1.156h-4.16v1.011h2.962v2.855h-5.958v.726h6.24v1.156h-7.728v-2.897h5.967v-.683h-5.975v-1.157h3.012v-1.01h-4.114v-1.157h6.899c.165-.85.199-1.512.207-2.096h-5.913v-1.173h7.409Zm10.963-.418V26.08h-1.437v-5.428h-.978v4.952h-1.388v-9.916h1.388v3.763h.978v-4.045h1.437Zm-9.327 7.441c2.171-1.268 3.108-2.83 3.307-4.922H70.99v-1.198h4.226c-.004 2.975-.89 5.412-3.903 7.156l-.862-1.036Zm19.106-7.023v.725c0 .655 0 1.517-.195 2.544h1.347v1.156h-4.16v1.011h2.962v2.855h-5.958v.726h6.24v1.156h-7.728v-2.897h5.967v-.683h-5.975v-1.157h3.012v-1.01h-4.114v-1.157h6.899c.166-.85.199-1.512.207-2.096H82.15v-1.173h7.409Z" fill="#313239"/><path d="m73 43-4.572-9H54l19 9ZM93.057 52.025c.004-.375.023-.75.047-1.12.877-6.091 3.951-11.383 8.525-16.096 4.913-5.069 11.015-8.882 17.939-11.807.444-.186.761-.43.985-.799 1.03-1.681 2.054-3.367 3.12-5.035 2.089-3.278 4.043-6.629 6.844-9.548 2.351-2.452 4.962-4.653 8.372-6.063 2.823-1.168 5.741-1.615 8.739-.433 2.521.996 4.058 2.761 5.128 4.844 1.17 2.27 1.638 4.665 1.781 7.116.009.168-.094.436.227.456.337.02.239-.254.261-.421.034-.23.031-.459.059-.684.324-2.887 1.026-5.692 2.977-8.151 2.037-2.573 4.846-3.944 8.624-3.59 2.276.214 4.288 1.025 6.136 2.122 4.191 2.49 7.202 5.829 9.669 9.543 2.248 3.386 4.227 6.894 6.323 10.345.218.359.457.657.918.855a57.984 57.984 0 0 1 7.535 3.912c6.43 3.955 11.722 8.744 15.215 14.82 1.72 2.997 2.84 6.073 3.303 9.228.032.517.054 1.033.05 1.554-.17 19.98-27.79 35.944-61.694 35.656-33.903-.288-61.247-16.72-61.077-36.7l-.006-.004Z" fill="#fff"/><path d="M144.451 12.995c4.598 2.687 5.975 7.59 3.572 12.129-1.564 2.945-4.574 4.653-7.6 4.308-2.842-.336-5.15-2.675-6.017-5.996-1.682-6.494 5.098-12.69 10.045-10.44ZM166.011 12.22c5.298.525 8.575 4.388 8.257 9.487-.21 3.311-2.249 6.103-5.148 7.044-2.728.875-5.796-.284-7.956-2.928-4.211-5.175-.589-13.587 4.847-13.603Z" fill="#0E0E0E"/><path d="M142.652 20.476c-.663-1.409-.458-2.52.674-3.382.748-.558 1.578-.587 2.402-.128 1.038.58 1.525 1.473 1.519 2.63-.005.813-.3 1.521-1.092 1.86-1.299.546-2.395.019-3.485-.979h-.018ZM167.221 20.21c-1.338-1.135-1.645-2.369-.888-3.781.506-.92 1.343-1.337 2.401-1.251 1.335.109 2.251.797 2.786 1.986.374.836.402 1.7-.251 2.415-1.077 1.167-2.446 1.138-4.029.624l-.019.007Z" fill="#fff"/><path d="M155.623 39.19c-1.716 1.1-3.537 1.836-5.528 2.01-1.703.152-3.284-.254-4.508-1.545-.311-.33-.505-.724-.18-1.157.298-.397.75-.41 1.048.005.84 1.179 2.1 1.366 3.382 1.317 1.707-.067 3.379-.558 4.788-1.456 1.056-.674 1.933-.647 3.044-.366 1.576.397 3.188.402 4.733-.286.614-.272 1.106-.71 1.635-1.103.325-.241.718-.567 1.052-.241.361.348.036.786-.23 1.098-1.138 1.34-2.638 1.979-4.377 2.086-1.3.08-2.569-.125-3.793-.567-.402-.147-.737-.147-1.066.205ZM188.802 9.997a1 1 0 0 1 .919-.996l36.012-2.914a1 1 0 0 1 1.081.997v64.123a1 1 0 0 1-1 1h-36.012a1 1 0 0 1-1-1V9.997Z" fill="#0E0E0E"/><path fill-rule="evenodd" clip-rule="evenodd" d="m224.577 7.117-35.775 3.073v63.087h35.775V7.117Zm.001 0 8.944 3.073h-8.944V7.117Z" fill="#E0E1E9"/><path d="M188.802 9.91h2.515V75l-2.515-1.677V9.91Z" fill="#0E0E0E"/><rect width="65" height="46.024" rx="1" transform="matrix(0 1 1 0 189.802 10)" fill="#0E0E0E"/><rect x="193.804" y="27" width="12" height="38.02" rx="1" transform="rotate(-90 193.804 27)" fill="#fff"/><path d="M233.512 35.02c-8.114 0-14.694 3.685-14.694 8.224 0 1.904 1.154 3.657 3.096 5.047a.632.632 0 0 1 0 1.017c-1.942 1.396-3.096 3.15-3.096 5.048 0 1.899 1.154 3.657 3.096 5.047a.632.632 0 0 1 0 1.018c-1.942 1.395-3.096 3.148-3.096 5.047 0 4.545 6.58 8.223 14.694 8.223.59 0 1.17-.027 1.739-.065v-.01C244.534 73.378 252 64.83 252 54.313c0-10.517-7.673-19.314-17.142-19.314-.192 0-.373.01-.559.016-.264-.01-.523-.016-.793-.016l.006.021Z" fill="#fff"/></g></svg>
